!!!OTL: Kan wawa
!!!ARE: Asia, China,ˇLiaoning, jinxian
!! III, 292
!!!SCT: C1564
!!!YEM: Copyright 1995, estate of Helmut Schaffrath.
**kern
*ICvox
*Ivox
*M2/4
*k[b-]
*F:
{8cc
8cc
16dd
16cc
16dd
16ff
=1
2cc
=2
8ff
16dd
16cc
8cc
8f
=3
2g}
=4
{8r
8f
8f
16g
16g
=5
8.a
16ff
8dd
8cc
=6
16f
16f
16d
16f
16g
16a
8f
=7
8.g
16a
4g}
=8
{8f
8f
16d
16f
16d
16f
=9
8.g
16a
8cc
8a
=10
8g
8g
8a
8cc
=11
8g
4g}
{16g
16a
=12
4.cc
8dd
=13
8ff
8dd
8cc
8a
=14
8.g
16a
16g
8g
16a
=15
4.cc
8a
=16
2cc}
=17
{8.ff
16dd
[4cc
=18
4cc]
8.g
16a
=19
8.cc}
{16dd
8a
8g
=20
8.f
16g
8e
8d
=21
8.c
16d
8f
8g
=22
16d
16f
16d
16c
16A
16c
16d
16f
=23
2c}
==
!!!AGN: Xiaodiao. FunÅ shenghuo
!!!AMT: simple duple
!!!AIN: vox
!!!EED: Helmut Schaffrath
!!!EEV: 1.0
*-
!!!ONB: Tied note syntax fixed by Craig Sapp, 2004/05/03/
